svg/dock_top.svg

<?xml version="1.0" encoding="UTF-8"?><!DOCTYPE svg PUBLIC "-//W3C//DTD SVG 1.1//EN" "http://www.w3.org/Graphics/SVG/1.1/DTD/svg11.dtd"><svg xmlns="http://www.w3.org/2000/svg" xmlns:xlink="http://www.w3.org/1999/xlink" version="1.1" id="mdi-dock-top" width="24" height="24" viewBox="0 0 24 24"><path d="M4 20H20C21.11 20 22 19.11 22 18V6C22 4.89 21.11 4 20 4H4C2.9 4 2 4.89 2 6V18C2 19.11 2.9 20 4 20M4 11H20V18H4V11Z" /></svg>

<svg xmlns="http://www.w3.org/2000/svg" viewBox="0 0 24 24"><path d="M4 20h16c1.11 0 2-.89 2-2V6c0-1.11-.89-2-2-2H4a2 2 0 0 0-2 2v12a2 2 0 0 0 2 2m0-9h16v7H4z"/></svg>
